X: 6
T: DEEP PURPLE
C: P. de Rose
M: C|
L: 1/4
K: G
 DE | "G"d2 DE | "Ddim"=F2 D^D | "Am"EA ce |
 "D7"d2 ^AB |"G"ag dB | "Dm"A^A Be | "E7"E4- |
 E2 ^DE |"Am"d2 _dc | "Cm"B_B A2 | "G"A2 _AG |
[1 "Edim"F=F E2 | "D7"E2 _ED | A2 "D"^Ae | "G"d4- | dz :|
[2 "Edim"f=f e2 | "Am7"e2 _ed | "D7"A2 ^AB | "G"d4- | dz |]
